source/images/logo/nuxtjs.svg

<svg fill="none" height="65" viewBox="0 0 87 65" width="87" xmlns="http://www.w3.org/2000/svg" xmlns:xlink="http://www.w3.org/1999/xlink"><clipPath id="a"><path d="m.51416.977539h86.1936v64h-86.1936z"/></clipPath><g clip-path="url(#a)"><path d="m49.6275 18.6041-2.9498 5.0908-10.0878-17.41457-30.96798 53.45267h20.96738c0 2.8115 2.2868 5.0907 5.1078 5.0907h-26.07518c-1.82465 0-3.51054-.9708-4.42272-2.5458-.912173-1.575-.91208-3.5154.00025-5.0903l30.96795-53.45264c.9124-1.57516 2.5987-2.54551 4.4235-2.54551 1.8249 0 3.5112.97035 4.4236 2.54551z" fill="#00c58e"/><path d="m71.9825 57.188-19.4053-33.4928-2.9497-5.0907-2.9497 5.0907-19.4032 33.4928c-.9123 1.5749-.9124 3.5153-.0002 5.0903s2.5981 2.5458 4.4227 2.5458h35.8565c1.8251 0 3.5117-.9698 4.4243-2.5449.9127-1.5752.9128-3.516.0003-5.0912zm-40.2854 2.5453 17.9304-30.9474 17.9261 30.9474z" fill="#2f495e"/><path d="m85.8564 62.2788c-.9122 1.5748-2.598 2.5454-4.4225 2.5454h-13.8803c2.8209 0 5.1077-2.2792 5.1077-5.0908h8.762l-24.8621-42.9169-3.984 6.8788-2.9498-5.0907 2.5114-4.3335c.9124-1.5752 2.5986-2.5455 4.4235-2.5455s3.5111.9703 4.4235 2.5455l24.8706 42.917c.9124 1.575.9124 3.5156 0 5.0907z" fill="#108775"/></g></svg>

<svg width="87" height="65" viewBox="0 0 87 65" fill="none" xmlns="http://www.w3.org/2000/svg">
<g clip-path="url(#clip0)">
<path d="M49.6275 18.6041L46.6777 23.6949L36.5899 6.28033L5.62192 59.733H26.5893C26.5893 62.5445 28.8761 64.8237 31.6971 64.8237H5.62192C3.79727 64.8237 2.11138 63.8529 1.1992 62.2779C0.287027 60.7029 0.28712 58.7625 1.19945 57.1876L32.1674 3.73496C33.0798 2.1598 34.7661 1.18945 36.5909 1.18945C38.4158 1.18945 40.1021 2.1598 41.0145 3.73496L49.6275 18.6041V18.6041Z" fill="#00C58E"/>
<path d="M71.9825 57.188L52.5772 23.6952L49.6275 18.6045L46.6778 23.6952L27.2746 57.188C26.3623 58.7629 26.3622 60.7033 27.2744 62.2783C28.1866 63.8533 29.8725 64.8241 31.6971 64.8241H67.5536C69.3787 64.8241 71.0653 63.8543 71.9779 62.2792C72.8906 60.704 72.8907 58.7632 71.9782 57.188H71.9825ZM31.6971 59.7333L49.6275 28.7859L67.5536 59.7333H31.6971L31.6971 59.7333Z" fill="#2F495E"/>
<path d="M85.8564 62.2788C84.9442 63.8536 83.2584 64.8242 81.4339 64.8242H67.5536C70.3745 64.8242 72.6613 62.545 72.6613 59.7334H81.4233L56.5612 16.8165L52.5772 23.6953L49.6274 18.6046L52.1388 14.2711C53.0512 12.6959 54.7374 11.7256 56.5623 11.7256C58.3872 11.7256 60.0734 12.6959 60.9858 14.2711L85.8564 57.1881C86.7688 58.7631 86.7688 60.7037 85.8564 62.2788V62.2788Z" fill="#108775"/>
</g>
<defs>
<clipPath id="clip0">
<rect width="86.1936" height="64" fill="white" transform="translate(0.51416 0.977539)"/>
</clipPath>
</defs>
</svg>
